X:14
T:"CHEESE IT!" -- REEL.
T:Corney is Coming
R:reel
B:Coles pg. 30.6
Z:John B. Walsh, 5/8/2002 <walsh:mat::h.ubc.ca>
M:C|
L:1/8
K:D
uA S|Addc dfed|AB=cA FGAF|Dddc defg|afge fdcB|
Addc dfed|AB=cA FGAF|Dddc defg|afge fd d2 H||
|:defg adfd|cdef gedc|defg adfd|gece (fd) d2|
defg adfd|cdef gedc|defg a2(gf)|gbag fed"D.S."c S:|
